shell/res/secondaryleftmenu/Printer.svg

<?xml version="1.0" encoding="utf-8"?>
<!-- Generator: Adobe Illustrator 24.0.2, SVG Export Plug-In . SVG Version: 6.00 Build 0)  -->
<!DOCTYPE svg PUBLIC "-//W3C//DTD SVG 1.1//EN" "http://www.w3.org/Graphics/SVG/1.1/DTD/svg11.dtd" [
	<!ENTITY ns_extend "http://ns.adobe.com/Extensibility/1.0/">
	<!ENTITY ns_ai "http://ns.adobe.com/AdobeIllustrator/10.0/">
	<!ENTITY ns_graphs "http://ns.adobe.com/Graphs/1.0/">
	<!ENTITY ns_vars "http://ns.adobe.com/Variables/1.0/">
	<!ENTITY ns_imrep "http://ns.adobe.com/ImageReplacement/1.0/">
	<!ENTITY ns_sfw "http://ns.adobe.com/SaveForWeb/1.0/">
	<!ENTITY ns_custom "http://ns.adobe.com/GenericCustomNamespace/1.0/">
	<!ENTITY ns_adobe_xpath "http://ns.adobe.com/XPath/1.0/">
]>
<svg version="1.1" id="图层_1" xmlns:x="&ns_extend;" xmlns:i="&ns_ai;" xmlns:graph="&ns_graphs;"
	 xmlns="http://www.w3.org/2000/svg" xmlns:xlink="http://www.w3.org/1999/xlink" x="0px" y="0px" viewBox="0 0 24 24"
	 enable-background="new 0 0 24 24" xml:space="preserve">
<metadata>
	<sfw  xmlns="&ns_sfw;">
		<slices></slices>
		<sliceSourceBounds  bottomLeftOrigin="true" height="1298" width="1504" x="-206" y="-620"></sliceSourceBounds>
	</sfw>
</metadata>
<path fill="#404040" d="M20,9H4c-1.7,0-3,1.3-3,3v4c0,1.7,1.3,3,3,3h2v-2H4c-0.6,0-1-0.4-1-1v-4c0-0.6,0.4-1,1-1h16c0.6,0,1,0.4,1,1
	v4c0,0.6-0.4,1-1,1h-2v2h2c1.7,0,3-1.3,3-3v-4C23,10.3,21.7,9,20,9z"/>
<path fill="#404040" d="M18,15H6c-1.1,0-2,0.9-2,2v3c0,1.7,1.3,3,3,3h10c1.7,0,3-1.3,3-3v-3C20,15.9,19.1,15,18,15z M6,20v-3h12v3
	c0,0.6-0.4,1-1,1H7C6.4,21,6,20.6,6,20z"/>
<rect x="6" y="2" fill="none" stroke="#404040" stroke-width="2" stroke-miterlimit="10" width="12" height="8"/>
<rect x="17" y="12" fill="#404040" width="2" height="2"/>
</svg>

<svg id="图层_1" data-name="图层 1" xmlns="http://www.w3.org/2000/svg" viewBox="0 0 24 24"><defs><style>.cls-1{fill:#404040;}.cls-2{fill:none;stroke:#404040;stroke-miterlimit:10;stroke-width:2px;}</style></defs><title>printer</title><path class="cls-1" d="M20,9H4a3,3,0,0,0-3,3v4a3,3,0,0,0,3,3H6V17H4a1,1,0,0,1-1-1V12a1,1,0,0,1,1-1H20a1,1,0,0,1,1,1v4a1,1,0,0,1-1,1H18v2h2a3,3,0,0,0,3-3V12A3,3,0,0,0,20,9Z"/><path class="cls-1" d="M18,15H6a2,2,0,0,0-2,2v3a3,3,0,0,0,3,3H17a3,3,0,0,0,3-3V17A2,2,0,0,0,18,15ZM6,20V17H18v3a1,1,0,0,1-1,1H7A1,1,0,0,1,6,20Z"/><rect class="cls-2" x="6" y="2" width="12" height="8"/><rect class="cls-1" x="17" y="12" width="2" height="2"/></svg>
